X: 10361
T: the LEGACY
%R: jig
B: "Edinburgh Repository of Music" v.1 p.36 #1
F: http://digital.nls.uk/special-collections-of-printed-music/pageturner.cfm?id=87776133
Z: 2015 John Chambers <jc:trillian.mit.edu>
M: 6/8
L: 1/8
K: D
|:\
d2d dAF | a2a afd |\
d2e fef | B2c d2 :| A |\
dfa d'2d' | c'ba baf |
dfa d'2d' | c'ba b2c' |\
d'2d' c'af | b2b afd |\
d2e fef | B2c d2 :|
